src/main/webapp/data/gum.svg

<svg height="440" width="820" xmlns="http://www.w3.org/2000/svg"><path d="m0 0h820v440h-820z" fill="#c62139"/><path d="m20 20h780v400h-780z" fill="#00297b"/><path d="m410.25782 100.00041s-80.25744 54.71032-80.25744 119.22112c0 64.52113 80.25744 120.7797 80.25744 120.7797s79.74275-51.61896 79.74275-120.7797c0-69.15557-79.74275-119.22112-79.74275-119.22112" fill="#c62139"/><path d="m477.92277 240.56171c1.76049-6.86395 2.76064-13.99111 2.76064-21.34018 0-61.93036-70.42559-107.86205-70.42559-107.86205s-71.45498 47.48511-71.45498 107.86205c0 7.25102 1.0177 14.31624 2.81329 21.15955z" fill="#66afeb"/><path d="m409.67295 328.12609s55.23621-36.58021 68.22643-87.74501h-136.33589c13.18908 50.17908 68.10946 87.74501 68.10946 87.74501" fill="#007bde"/><path d="m480.33833 226.4519c-12.08365 8.60833-80.08783 4.47447-80.08783 4.47447l-3.80173 9.63534h81.46815c.33923-1.32118.64923-2.64237.92997-3.97903z" fill="#9c8431"/><g fill="#fff100"><path d="m406.07592 287.35526c-1.03524-7.20973-32.84109-14.93038-49.72078-14.29559 5.26978 8.2677 11.24142 15.83353 17.24816 22.55813 8.57437-9.20182 32.81185-5.88338 32.47262-8.26254"/><path d="m470.45384 260.54973c-4.04154.14451-11.37595.78962-16.40008 3.40617-7.24668 3.78292-23.4713 7.91677-30.72383 5.84726-7.24669-2.06434-18.64018 4.47447-17.25401 5.84726 2.29858 2.29659 18.97941-.34062 18.97941 14.45558 0 12.38607-19.32449 6.88459-26.9221 12.04546-4.57963 3.10168-7.77308 6.47172-9.5862 8.63928 11.86139 10.97716 21.14931 17.33535 21.14931 17.33535s22.02079-14.58461 41.52074-38.20072l9.17094-12.16932c3.69646-5.41374 7.12386-11.15778 10.06582-17.20632"/></g><g fill="#009270"><path d="m405.85951 165.16664s-11.00746-6.45108-26.02137-3.35972c-15.01392 3.09652-18.25415 12.50994-18.25415 12.50994l5.04752-2.31723.12868 2.06434 4.53283-2.83847.12867 2.06434 3.88361-3.60744.63753 2.31723 3.49758-3.09652.2632 1.67728 5.6909-3.6126v2.32238l4.53283-2.0695-.38602 2.19853 8.54513-1.5431s-20.19597 6.70396-22.78115 22.83166l3.87777-4.63446.39187 2.18305 2.4565-4.89766.64922 1.93532 2.19915-4.51575.64338 2.70429 3.36307-4.90282.2632 2.84364 3.87776-5.28989v2.57011l4.14681-4.51576-.12868 3.36489s4.01229-3.36489 5.29903-3.36489l-4.78433 6.1982 1.55579.51609s-3.36892 2.70945-3.62627 3.22554c-.25735.51092 2.205 0 2.205 0s-2.98289 3.09136-3.11157 3.99967c-.12867.90831 1.9418 0 1.9418 0s-2.71969 3.47842-3.10571 4.77896c-.39187 1.29021 1.42125.25288 1.42125.25288s-1.6786 4.12869-1.81312 5.28989c-.12868 1.15087 1.9418-.26321 1.9418-.26321l1.16977 7.09619 2.07047-8.5051 1.29259 1.93532v-6.06918l1.16391 1.02702-.12866-3.98935 1.54994 1.5431-.77205-4.90282 1.67861 1.925-.25735-4.11837 1.67861 1.68244v-5.42407l1.55579 1.40892.25735-3.72615 1.81312.89799s.25735-4.51575 2.33368-4.38673c2.06463.1187 4.65566 2.31723 3.62042 3.34424l1.81313-.5006-.38602 4.37125 1.67861-1.02701-.25735 3.22554 1.42126-.64511-.51469 4.12353 1.68446-1.01669.12282 5.01636 1.93596-1.40892-.12868 5.92467 1.94181-1.53793v4.89766l1.81314-1.2799 1.94765 4.76864-.39186-7.09619 1.42711 1.15604-2.59689-5.02669 1.94766-.2632-2.07633-3.35972 1.94181.1445-2.84252-3.35972 1.93596-.3819-4.2755-3.10168 2.33369-.89799-4.40416-2.84364 1.68446-.64511-3.09987-3.22554 3.23439 1.29022 1.02939-2.06435 3.88361 3.10168v-3.10168l3.36307 4.64478.39188-2.84364 2.59102 3.61777.5147-1.67212 1.81313 3.60744.90072-2.69913 1.81312 3.87065.5147-2.71978 1.68446 4.26288 1.55579-1.68244.77789 4.39189 1.54409-1.68244 1.42126 3.87065 1.81313-1.41924 1.55579 4.3919s4.26963-23.4871-32.3615-23.87932l-10.87294-2.05403"/><path d="m389.03248 144.25998 2.06462 2.57011-1.03523.78446 3.49759 1.93532-.7779 1.41408 3.4976 1.29021-1.29844 1.03734 3.11156 1.79598-2.07047.65543 3.74909 1.80114-.51469 1.67212 3.23438.77929-1.42126 1.15603 3.7491 2.97782 4.27548 2.96234 2.97705-1.02702-1.16976-5.68727s-12.29422-16.77281-21.86872-16.1277"/><path d="m400.29144 128.00326 1.42711 3.34424-1.94765.39223 4.40415 4.38673-3.49758.12902 4.27548 3.34941-2.07633.65542 3.88947 3.87065-2.07634 1.02701 4.01229 3.99967-2.71385 1.02702 4.53283 4.13385-2.59102.13418 2.71385 3.47326-2.4565.77929s2.97705 5.54277 2.84251 7.87032l5.04754.25288s.77788-14.9665.13452-16.90183l-1.29844.90315.38603-5.4189-1.94181 1.16635-.38018-6.45108-1.94766 2.05919-.50884-6.32206-1.42711 2.19853-1.42711-6.1982-1.54994 1.93532-1.42711-3.99451-1.16391 1.5431-3.2344-3.35456"/><path d="m413.36355 165.67757c1.42711-9.03151 10.8788-22.19172 28.6124-22.7078l-4.01814 2.06434 2.33369 1.03218-4.66151 1.68244 2.32782 1.40891-5.56222.39223 2.84253 1.93532-4.13512.51609-3.24024.64511 2.32782 2.1882-4.66149.51093 2.98289 1.55342s-7.3812 2.58043-7.8959 3.35972c0 0 24.85746-6.32206 30.94023 5.40859l-4.79603-2.06435.39188 2.19853-3.36308-2.45141.5147 1.8063-3.49174-1.8063.5147 2.18821-3.62628-2.06435.7779 1.94565-4.66151-2.19853.77789 2.06434-4.01228-1.29021.39187 2.1882-4.01813-.25288.39186 2.58043-12.42873-.2632-1.55578-2.58043"/></g><g fill="#7b4800"><path d="m409.56767 173.46015 2.59102-.17031c-1.21071 24.607-.07607 59.88667 3.27534 72.94882 5.6909 22.18655 22.28399 30.73294 26.23194 32.85922 2.24009 1.19732 1.38031 6.18787-3.11157 5.84726-4.4802-.34578-20.13747-11.87515-25.54178-32.51861-7.24084-27.69835-3.7257-76.08145-3.44495-78.96638"/><circle cx="413.755" cy="168.129" r="2.926"/><circle cx="409.094" cy="167.092" r="2.739"/><circle cx="409.094" cy="171.871" r="2.558"/><circle cx="412.586" cy="170.58" r="2.739"/></g><g fill="#7b4800"><path d="m384.64001 257.16421h2.92441v-31.48127h-2.92441z" fill="#000"/><path d="m394.13849 263.0992s-1.199.2116-3.10572.45416v-2.45658h-1.9418v2.66817c-1.98861.20128-4.39831.36642-6.92501.36642-2.6846 0-5.3926-.19611-7.62685-.42319v-2.5443h-2.14067v2.30174c-1.84822-.23224-3.04138-.43351-3.04138-.43351s-.58488 3.22554 12.62175 3.22554c13.20076 0 12.16553-3.15845 12.16553-3.15845"/><path d="m381.60448 257.07131c10.70333 0 19.68127-1.71341 19.68127-1.71341s1.37446 6.87427-19.68127 6.87427c-21.05574 0-19.33033-5.84209-19.33033-5.84209s8.63284.68123 19.33033.68123"/><path d="m372.62655 227.47892s16.56969 6.19819 23.13206 27.87898c0 0-15.18937-3.09135-23.82223.34578h-4.83112c0-.01075 8.28777-12.04545 5.52129-28.22476" fill="#fff"/></g><g fill="#c62139"><path d="m374.97192 211.16026h-3.07063c-.2398-1.32118-.81883-2.25013-1.7371-2.76106-.51469-.29417-1.08203-.43351-1.70785-.43351-1.2107 0-2.1933.57286-2.96535 1.75469-.77789 1.16636-1.16391 2.9417-1.16391 5.28989 0 2.37916.42111 4.05128 1.2575 5.05249.83637.9754 1.78973 1.47084 2.86007 1.47084 1.04693 0 1.90086-.38706 2.57347-1.17151.66677-.77413 1.07619-1.80115 1.23995-3.07588h-3.4625v-3.21522h6.22314v10.3527h-2.06463l-.31583-2.41013c-.60243.91864-1.14052 1.56374-1.62013 1.94565-.82468.65543-1.83652.98056-3.04138.98056-1.9769 0-3.60287-.88767-4.86037-2.663-1.31598-1.77534-1.9769-4.21127-1.9769-7.29747 0-3.12232.66677-5.63566 2.0003-7.51937 1.32183-1.88372 3.08232-2.823 5.27564-2.823 1.895 0 3.42155.62447 4.57376 1.86824 1.14637 1.2386 1.81314 2.79202 1.98275 4.65509"/><path d="m389.58811 216.9972v-11.86482h3.17006v11.86482c0 1.32118.12868 2.28626.36847 2.90041.38018 1.07862 1.19901 1.62567 2.47406 1.62567 1.25749 0 2.08218-.54705 2.46234-1.62567.24566-.61415.35678-1.57923.35678-2.90041v-11.86482h3.17591v11.86482c0 2.0437-.24565 3.63841-.73695 4.78928-.92411 2.08499-2.67291 3.13265-5.26393 3.13265-2.58519 0-4.34567-1.03734-5.26979-3.13265-.49129-1.14055-.73695-2.74558-.73695-4.78928"/><path d="m423.125 205.125-5.34375 19.3125h3.28125l1.03125-3.96875h5.5l.96875 3.96875h3.375l-5.3125-19.3125zm1.71875 4.40625 1.875 7.59375h-3.78125z"/><path d="m451.65574 220.30015 2.6963-15.16777h4.48604v19.29131h-2.90686v-13.04151c0-.3819.00582-.90831.01175-1.58438.00582-.67608.01175-1.19732.01175-1.55858l-2.83083 16.18447h-3.02967l-2.80744-16.18447c0 .36126.00582.8825.01175 1.55858.00582.67607.01175 1.20248.01175 1.58438v13.04151h-2.90686v-19.29131h4.53868l2.71385 15.16777"/></g></svg>

<?xml version="1.0" encoding="UTF-8"?>
<svg version="1.0" xmlns="http://www.w3.org/2000/svg" width="820" height="440">
<rect fill="#c62139" width="820" height="440"/>
<rect fill="#00297b" width="780" height="400" x="20" y="20"/>
<g>
<path fill="#c62139" d="M410.25782,100.00041C410.25782,100.00041 330.00038,154.71073 330.00038,219.22153C330.00038,283.74266 410.25782,340.00123 410.25782,340.00123C410.25782,340.00123 490.00057,288.38227 490.00057,219.22153C490.00057,150.06596 410.25782,100.00041 410.25782,100.00041"/>
<path fill="#66afeb" d="M477.92277,240.56171C479.68326,233.69776 480.68341,226.5706 480.68341,219.22153C480.68341,157.29117 410.25782,111.35948 410.25782,111.35948C410.25782,111.35948 338.80284,158.84459 338.80284,219.22153C338.80284,226.47255 339.82054,233.53777 341.61613,240.38108L477.92277,240.56171"/>
<path fill="#007bde" d="M409.67295,328.12609C409.67295,328.12609 464.90916,291.54588 477.89938,240.38108L341.56349,240.38108C354.75257,290.56016 409.67295,328.12609 409.67295,328.12609"/>
<path fill="#9c8431" d="M480.33833,226.4519C468.25468,235.06023 400.2505,230.92637 400.2505,230.92637L396.44877,240.56171L477.91692,240.56171C478.25615,239.24053 478.56615,237.91934 478.84689,236.58268L480.33833,226.4519"/>
<g fill="#fff100">
<path d="M406.07592,287.35526C405.04068,280.14553 373.23483,272.42488 356.35514,273.05967C361.62492,281.32737 367.59656,288.8932 373.6033,295.6178C382.17767,286.41598 406.41515,289.73442 406.07592,287.35526"/>
<path d="M470.45384,260.54973C466.4123,260.69424 459.07789,261.33935 454.05376,263.9559C446.80708,267.73882 430.58246,271.87267 423.32993,269.80316C416.08324,267.73882 404.68975,274.27763 406.07592,275.65042C408.3745,277.94701 425.05533,275.3098 425.05533,290.106C425.05533,302.49207 405.73084,296.99059 398.13323,302.15146C393.5536,305.25314 390.36015,308.62318 388.54703,310.79074C400.40842,321.7679 409.69634,328.12609 409.69634,328.12609C409.69634,328.12609 431.71713,313.54148 451.21708,289.92537L460.38802,277.75605C464.08448,272.34231 467.51188,266.59827 470.45384,260.54973"/>
</g>
<g fill="#009270">
<path d="M405.85951,165.16664C405.85951,165.16664 394.85205,158.71556 379.83814,161.80692C364.82422,164.90344 361.58399,174.31686 361.58399,174.31686L366.63151,171.99963L366.76019,174.06397L371.29302,171.2255L371.42169,173.28984L375.3053,169.6824L375.94283,171.99963L379.44041,168.90311L379.70361,170.58039L385.39451,166.96779L385.39451,169.29017L389.92734,167.22067L389.54132,169.4192L398.08645,167.8761C398.08645,167.8761 377.89048,174.58006 375.3053,190.70776L379.18307,186.0733L379.57494,188.25635L382.03144,183.35869L382.68066,185.29401L384.87981,180.77826L385.52319,183.48255L388.88626,178.57973L389.14946,181.42337L393.02722,176.13348L393.02722,178.70359L397.17403,174.18783L397.04535,177.55272C397.04535,177.55272 401.05764,174.18783 402.34438,174.18783L397.56005,180.38603L399.11584,180.90212C399.11584,180.90212 395.74692,183.61157 395.48957,184.12766C395.23222,184.63858 397.69457,184.12766 397.69457,184.12766C397.69457,184.12766 394.71168,187.21902 394.583,188.12733C394.45433,189.03564 396.5248,188.12733 396.5248,188.12733C396.5248,188.12733 393.80511,191.60575 393.41909,192.90629C393.02722,194.1965 394.84034,193.15917 394.84034,193.15917C394.84034,193.15917 393.16174,197.28786 393.02722,198.44906C392.89854,199.59993 394.96902,198.18585 394.96902,198.18585L396.13879,205.28204L398.20926,196.77694L399.50185,198.71226L399.50185,192.64308L400.66576,193.6701L400.5371,189.68075L402.08704,191.22385L401.31499,186.32103L402.9936,188.24603L402.73625,184.12766L404.41486,185.8101L404.41486,180.38603L405.97065,181.79495L406.228,178.0688L408.04112,178.96679C408.04112,178.96679 408.29847,174.45104 410.3748,174.58006C412.43943,174.69876 415.03046,176.89729 413.99522,177.9243L415.80835,177.4237L415.42233,181.79495L417.10094,180.76794L416.84359,183.99348L418.26485,183.34837L417.75016,187.4719L419.43462,186.45521L419.55744,191.47157L421.4934,190.06265L421.36472,195.98732L423.30653,194.44939L423.30653,199.34705L425.11967,198.06715L427.06732,202.83579L426.67546,195.7396L428.10257,196.89564L425.50568,191.86895L427.45334,191.60575L425.37701,188.24603L427.31882,188.39053L424.4763,185.03081L426.41226,184.64891L422.13676,181.54723L424.47045,180.64924L420.06629,177.8056L421.75075,177.16049L418.65088,173.93495L421.88527,175.22517L422.91466,173.16082L426.79827,176.2625L426.79827,173.16082L430.16134,177.8056L430.55322,174.96196L433.14424,178.57973L433.65894,176.90761L435.47207,180.51505L436.37279,177.81592L438.18591,181.68657L438.70061,178.96679L440.38507,183.22967L441.94086,181.54723L442.71875,185.93912L444.26284,184.25668L445.6841,188.12733L447.49723,186.70809L449.05302,191.09999C449.05302,191.09999 453.32265,167.61289 416.69152,167.22067L405.81858,165.16664"/>
<path d="M389.03248,144.25998L391.0971,146.83009L390.06187,147.61455L393.55946,149.54987L392.78156,150.96395L396.27916,152.25416L394.98072,153.2915L398.09228,155.08748L396.02181,155.74291L399.7709,157.54405L399.25621,159.21617L402.49059,159.99546L401.06933,161.15149L404.81843,164.12931L409.09391,167.09165L412.07096,166.06463L410.9012,160.37736C410.9012,160.37736 398.60698,143.60455 389.03248,144.24966"/>
<path d="M400.29144,128.00326L401.71855,131.3475L399.7709,131.73973L404.17505,136.12646L400.67747,136.25548L404.95295,139.60489L402.87662,140.26031L406.76609,144.13096L404.68975,145.15797L408.70204,149.15764L405.98819,150.18466L410.52102,154.31851L407.93,154.45269L410.64385,157.92595L408.18735,158.70524C408.18735,158.70524 411.1644,164.24801 411.02986,166.57556L416.0774,166.82844C416.0774,166.82844 416.85528,151.86194 416.21192,149.92661L414.91348,150.82976L415.29951,145.41086L413.3577,146.57721L412.97752,140.12613L411.02986,142.18532L410.52102,135.86326L409.09391,138.06179L407.6668,131.86359L406.11686,133.79891L404.68975,129.8044L403.52584,131.3475L400.29144,127.99294"/>
<path d="M413.36355,165.67757C414.79066,156.64606 424.24235,143.48585 441.97595,142.96977L437.95781,145.03411L440.2915,146.06629L435.62999,147.74873L437.95781,149.15764L432.39559,149.54987L435.23812,151.48519L431.103,152.00128L427.86276,152.64639L430.19058,154.83459L425.52909,155.34552L428.51198,156.89894C428.51198,156.89894 421.13078,159.47937 420.61608,160.25866C420.61608,160.25866 445.47354,153.9366 451.55631,165.66725L446.76028,163.6029L447.15216,165.80143L443.78908,163.35002L444.30378,165.15632L440.81204,163.35002L441.32674,165.53823L437.70046,163.47388L438.47836,165.41953L433.81685,163.221L434.59474,165.28534L430.58246,163.99513L430.97433,166.18333L426.9562,165.93045L427.34806,168.51088L414.91933,168.24768L413.36355,165.66725"/>
</g>
<g fill="#7b4800">
<path d="M409.56767,173.46015L412.15869,173.28984C410.94798,197.89684 412.08262,233.17651 415.43403,246.23866C421.12493,268.42521 437.71802,276.9716 441.66597,279.09788C443.90606,280.2952 443.04628,285.28575 438.5544,284.94514C434.0742,284.59936 418.41693,273.06999 413.01262,252.42653C405.77178,224.72818 409.28692,176.34508 409.56767,173.46015"/>
<circle cx="413.755" cy="168.129" r="2.926"/>
<circle cx="409.094" cy="167.092" r="2.739"/>
<circle cx="409.094" cy="171.871" r="2.558"/>
<circle cx="412.586" cy="170.58" r="2.739"/>
</g>
<g fill="#7b4800">
<path fill="#000" d="M384.64001,257.16421L387.56442,257.16421L387.56442,225.68294L384.64001,225.68294L384.64001,257.16421z"/>
<path d="M394.13849,263.0992C394.13849,263.0992 392.93949,263.3108 391.03277,263.55336L391.03277,261.09678L389.09097,261.09678L389.09097,263.76495C387.10236,263.96623 384.69266,264.13137 382.16596,264.13137C379.48136,264.13137 376.77336,263.93526 374.53911,263.70818L374.53911,261.16388L372.39844,261.16388L372.39844,263.46562C370.55022,263.23338 369.35706,263.03211 369.35706,263.03211C369.35706,263.03211 368.77218,266.25765 381.97881,266.25765C395.17957,266.25765 394.14434,263.0992 394.14434,263.0992"/>
<path d="M381.60448,257.07131C392.30781,257.07131 401.28575,255.3579 401.28575,255.3579C401.28575,255.3579 402.66021,262.23217 381.60448,262.23217C360.54874,262.23217 362.27415,256.39008 362.27415,256.39008C362.27415,256.39008 370.90699,257.07131 381.60448,257.07131"/>
<path fill="#fff" d="M372.62655,227.47892C372.62655,227.47892 389.19624,233.67711 395.75861,255.3579C395.75861,255.3579 380.56924,252.26655 371.93638,255.70368L367.10526,255.70368C367.10526,255.69293 375.39303,243.65823 372.62655,227.47892"/>
</g>
<g fill="#c62139">
<path d="M374.97192,211.16026L371.90129,211.16026C371.66149,209.83908 371.08246,208.91013 370.16419,208.3992C369.6495,208.10503 369.08216,207.96569 368.45634,207.96569C367.24564,207.96569 366.26304,208.53855 365.49099,209.72038C364.7131,210.88674 364.32708,212.66208 364.32708,215.01027C364.32708,217.38943 364.74819,219.06155 365.58458,220.06276C366.42095,221.03816 367.37431,221.5336 368.44465,221.5336C369.49158,221.5336 370.34551,221.14654 371.01812,220.36209C371.68489,219.58796 372.09431,218.56094 372.25807,217.28621L368.79557,217.28621L368.79557,214.07099L375.01871,214.07099L375.01871,224.42369L372.95408,224.42369L372.63825,222.01356C372.03582,222.9322 371.49773,223.5773 371.01812,223.95921C370.19344,224.61464 369.1816,224.93977 367.97674,224.93977C365.99984,224.93977 364.37387,224.0521 363.11637,222.27677C361.80039,220.50143 361.13947,218.0655 361.13947,214.9793C361.13947,211.85698 361.80624,209.34364 363.13977,207.45993C364.4616,205.57621 366.22209,204.63693 368.41541,204.63693C370.31041,204.63693 371.83696,205.2614 372.98917,206.50517C374.13554,207.74377 374.80231,209.29719 374.97192,211.16026"/>
<path d="M389.58811,216.9972L389.58811,205.13238L392.75817,205.13238L392.75817,216.9972C392.75817,218.31838 392.88685,219.28346 393.12664,219.89761C393.50682,220.97623 394.32565,221.52328 395.6007,221.52328C396.85819,221.52328 397.68288,220.97623 398.06304,219.89761C398.3087,219.28346 398.41982,218.31838 398.41982,216.9972L398.41982,205.13238L401.59573,205.13238L401.59573,216.9972C401.59573,219.0409 401.35008,220.63561 400.85878,221.78648C399.93467,223.87147 398.18587,224.91913 395.59485,224.91913C393.00966,224.91913 391.24918,223.88179 390.32506,221.78648C389.83377,220.64593 389.58811,219.0409 389.58811,216.9972"/>
<path d="M423.125 205.125L417.78125 224.4375L421.0625 224.4375L422.09375 220.46875L427.59375 220.46875L428.5625 224.4375L431.9375 224.4375L426.625 205.125L423.125 205.125z M424.84375 209.53125L426.71875 217.125L422.9375 217.125L424.84375 209.53125z"/>
<path d="M451.65574,220.30015L454.35204,205.13238L458.83808,205.13238L458.83808,224.42369L455.93122,224.42369L455.93122,211.38218C455.93122,211.00028 455.93704,210.47387 455.94297,209.7978C455.94879,209.12172 455.95472,208.60048 455.95472,208.23922L453.12389,224.42369L450.09422,224.42369L447.28678,208.23922C447.28678,208.60048 447.2926,209.12172 447.29853,209.7978C447.30435,210.47387 447.31028,211.00028 447.31028,211.38218L447.31028,224.42369L444.40342,224.42369L444.40342,205.13238L448.9421,205.13238L451.65595,220.30015"/>
</g>
</g>
</svg>
